src/assets/cards/9S.svg

<svg clip-rule="evenodd" fill-rule="evenodd" stroke-linejoin="round" stroke-miterlimit="2" viewBox="0 0 934 1300" xmlns="http://www.w3.org/2000/svg"><g fill-rule="nonzero"><path d="m37.428 164.351 12.607-3.927c4.755 12.482 14.376 16.17 24.549 15.379 18.252-1.417 24.311-21.45 25.691-39.163-7.125 7.389-17.813 11.14-26.92 10.776-29.09-1.531-36.541-24.386-36.805-48.333-.815-20.196 7.69-34.823 22.279-41.522 7.715-3.399 25.389-3.399 33.167.628 17.838 9.232 24.449 25.201 23.244 63.298.025 31.348-6.774 67.864-40.994 68.642-19.77 2.684-34.798-12.419-36.818-25.778zm49.525-34.347c5.933-3.688 9.283-7.15 11.955-12.343 2.182-4.253 2.922-6.473 2.295-15.292-1.605-22.73-13.748-35.613-31.348-33.054-9.822 1.43-15.178 6.824-18.264 16.872-5.695 18.528 1.518 40.23 15.028 45.235 6.096 2.245 15.479 1.593 20.334-1.418z"/><path d="m895.907 1135.65-12.62 3.92c-4.754-12.48-14.363-16.16-24.536-15.37-18.265 1.42-24.324 21.45-25.691 39.17 7.112-7.4 17.813-11.15 26.907-10.79 29.103 1.54 36.542 24.4 36.818 48.34.803 20.2-7.702 34.82-22.291 41.52-7.715 3.4-25.39 3.4-33.155-.62-17.85-9.24-24.449-25.21-23.257-63.3-.012-31.35 6.774-67.86 40.995-68.64 19.782-2.69 34.797 12.41 36.83 25.77zm-49.538 34.35c-5.933 3.68-9.282 7.15-11.942 12.34-2.182 4.26-2.923 6.47-2.295 15.29 1.593 22.73 13.736 35.62 31.348 33.06 9.822-1.43 15.178-6.83 18.264-16.87 5.683-18.54-1.53-40.24-15.04-45.24-6.097-2.25-15.48-1.6-20.335 1.42z"/><path d="m222.76 287.364c.083-8.437-6.583-8.6-6.542-2.441-.541 30.954-26.708 46.195-45.75 42.579-29.291-5.571-38.666-34.675-38.375-51.813.875-52.904 54.125-91.912 102.167-159.729 35.208 61.213 93.333 109.292 96.75 156.608 4.583 62.909-75.042 86.375-86.417 13.055-.708-5.18-6.791-7.505-6.333-.271 1.708 20.091-.75 28.462 21.917 77.996h-59.25c13.125-23.146 20.958-51.559 21.833-75.984z"/><path d="m687.51 287.364c.042-8.437-6.625-8.6-6.542-2.441-.583 30.954-26.75 46.195-45.75 42.579-29.333-5.571-38.708-34.675-38.416-51.813.875-52.904 54.125-91.912 102.166-159.729 35.209 61.213 93.334 109.292 96.792 156.608 4.542 62.909-75.042 86.375-86.417 13.055-.75-5.18-6.833-7.505-6.375-.271 1.75 20.091-.708 28.462 21.959 77.996h-59.25c13.083-23.146 20.916-51.559 21.833-75.984z"/><path d="m687.51 559.577c.042-8.442-6.625-8.604-6.542-2.442-.583 30.954-26.75 46.196-45.75 42.579-29.333-5.575-38.708-34.675-38.416-51.816.875-52.9 54.125-91.909 102.166-159.725 35.209 61.212 93.334 109.287 96.792 156.608 4.542 62.908-75.042 86.371-86.417 13.05-.75-5.179-6.833-7.504-6.375-.271 1.75 20.096-.708 28.467 21.959 78h-59.25c13.083-23.146 20.916-51.562 21.833-75.983z"/><path d="m222.76 559.577c.083-8.442-6.583-8.604-6.542-2.442-.541 30.954-26.708 46.196-45.75 42.579-29.291-5.575-38.666-34.675-38.375-51.816.875-52.9 54.125-91.909 102.167-159.725 35.208 61.212 93.333 109.287 96.75 156.608 4.583 62.908-75.042 86.371-86.417 13.05-.708-5.179-6.791-7.504-6.333-.271 1.708 20.096-.75 28.467 21.917 78h-59.25c13.125-23.146 20.958-51.562 21.833-75.983z"/><path d="m687.552 1014.27c.041 8.44-6.625 8.6-6.542 2.44-.583-30.95-26.75-46.192-45.75-42.579-29.333 5.575-38.708 34.679-38.417 51.819.875 52.9 54.125 91.91 102.167 159.72 35.208-61.21 93.333-109.29 96.792-156.6 4.541-62.91-75.042-86.377-86.417-13.06-.75 5.18-6.833 7.51-6.375.27 1.75-20.091-.708-28.457 21.958-77.991h-59.25c13.125 23.146 20.917 51.559 21.834 75.981z"/><path d="m687.552 742.998c.041 8.441-6.625 8.6-6.542 2.441-.583-30.954-26.75-46.196-45.75-42.579-29.333 5.575-38.708 34.675-38.417 51.817.875 52.9 54.125 91.908 102.167 159.725 35.208-61.213 93.333-109.292 96.792-156.609 4.541-62.908-75.042-86.37-86.417-13.05-.75 5.18-6.833 7.505-6.375.271 1.75-20.096-.708-28.466 21.958-78h-59.25c13.125 23.146 20.917 51.563 21.834 75.984z"/><path d="m458.01 602.331c.042 8.442-6.625 8.604-6.542 2.442-.583-30.955-26.75-46.192-45.75-42.58-29.333 5.575-38.666 34.675-38.416 51.817.875 52.9 54.125 91.908 102.166 159.725 35.209-61.208 93.334-109.287 96.792-156.604 4.583-62.908-75.042-86.375-86.417-13.054-.75 5.179-6.833 7.504-6.375.271 1.75-20.096-.708-28.463 21.959-77.996h-59.25c13.125 23.141 20.916 51.558 21.833 75.979z"/><path d="m222.802 742.998c.083 8.441-6.584 8.6-6.542 2.441-.542-30.954-26.708-46.196-45.75-42.579-29.292 5.575-38.667 34.675-38.375 51.817.875 52.9 54.125 91.908 102.167 159.725 35.208-61.213 93.333-109.292 96.75-156.609 4.583-62.908-75.042-86.37-86.375-13.05-.75 5.18-6.834 7.505-6.375.271 1.708-20.096-.709-28.466 21.916-78h-59.25c13.125 23.146 20.959 51.563 21.834 75.984z"/><path d="m222.802 1014.27c.083 8.44-6.584 8.6-6.542 2.44-.542-30.95-26.708-46.192-45.75-42.579-29.292 5.575-38.667 34.679-38.375 51.819.875 52.9 54.125 91.91 102.167 159.72 35.208-61.21 93.333-109.29 96.75-156.6 4.583-62.91-75.042-86.377-86.375-13.06-.75 5.18-6.834 7.51-6.375.27 1.708-20.091-.709-28.457 21.916-77.991h-59.25c13.125 23.146 20.959 51.559 21.834 75.981z"/><path d="m73.052 281.152c.041-3.634-3.75-1.938-4.25-.796-4.834 8.275-11.917 10.2-18.959 7.217-6.916-2.955-10.833-9.5-10.208-18.842 1.292-14.325 12.667-30 18.167-38.858 5.208-8.042 10.916-17.592 16.958-29.809 7.083 14.013 10.667 18 18.375 30.796 6.75 11.267 16.208 22.304 16.917 35.925 0 10.354-4.334 20.133-14.125 21.917-5.584 1.008-10.75-1.842-14.625-8.488-1.167-1.696-3.542-.812-3.5 1.509.708 8.72 4 16.595 11.791 25.883h-28.666c5.875-6.567 11.833-15.433 12.125-26.454z"/><path d="m859.802 1000.92c.041 3.64-3.75 1.94-4.25.79-4.875-8.267-11.959-10.192-18.959-7.208-6.958 2.954-10.833 9.498-10.208 18.838 1.292 14.33 12.625 30 18.125 38.86 5.208 8.04 10.958 17.59 17 29.81 7.042-14.01 10.667-18 18.333-30.8 6.792-11.27 16.25-22.3 16.959-35.93 0-10.35-4.375-20.128-14.167-21.907-5.542-1.009-10.75 1.837-14.583 8.487-1.167 1.69-3.542.81-3.5-1.51.666-8.723 3.958-16.594 11.791-25.882h-28.708c5.875 6.567 11.875 15.434 12.167 26.452z"/></g></svg>

<?xml version="1.0" encoding="UTF-8" standalone="no"?>
<!DOCTYPE svg PUBLIC "-//W3C//DTD SVG 1.1//EN" "http://www.w3.org/Graphics/SVG/1.1/DTD/svg11.dtd">
<svg width="100%" height="100%" viewBox="0 0 934 1300" version="1.1" xmlns="http://www.w3.org/2000/svg" xmlns:xlink="http://www.w3.org/1999/xlink" xml:space="preserve" xmlns:serif="http://www.serif.com/" style="fill-rule:evenodd;clip-rule:evenodd;stroke-linejoin:round;stroke-miterlimit:2;">
    <g>
        <path d="M37.428,164.351L50.035,160.424C54.79,172.906 64.411,176.594 74.584,175.803C92.836,174.386 98.895,154.353 100.275,136.64C93.15,144.029 82.462,147.78 73.355,147.416C44.265,145.885 36.814,123.03 36.55,99.083C35.735,78.887 44.24,64.26 58.829,57.561C66.544,54.162 84.218,54.162 91.996,58.189C109.834,67.421 116.445,83.39 115.24,121.487C115.265,152.835 108.466,189.351 74.246,190.129C54.476,192.813 39.448,177.71 37.428,164.351ZM86.953,130.004C92.886,126.316 96.236,122.854 98.908,117.661C101.09,113.408 101.83,111.188 101.203,102.369C99.598,79.639 87.455,66.756 69.855,69.315C60.033,70.745 54.677,76.139 51.591,86.187C45.896,104.715 53.109,126.417 66.619,131.422C72.715,133.667 82.098,133.015 86.953,130.004Z" style="fill-rule:nonzero;"/>
        <path d="M895.907,1135.65L883.287,1139.57C878.533,1127.09 868.924,1123.41 858.751,1124.2C840.486,1125.62 834.427,1145.65 833.06,1163.37C840.172,1155.97 850.873,1152.22 859.967,1152.58C889.07,1154.12 896.509,1176.98 896.785,1200.92C897.588,1221.12 889.083,1235.74 874.494,1242.44C866.779,1245.84 849.104,1245.84 841.339,1241.82C823.489,1232.58 816.89,1216.61 818.082,1178.52C818.07,1147.17 824.856,1110.66 859.077,1109.88C878.859,1107.19 893.874,1122.29 895.907,1135.65ZM846.369,1170C840.436,1173.68 837.087,1177.15 834.427,1182.34C832.245,1186.6 831.504,1188.81 832.132,1197.63C833.725,1220.36 845.868,1233.25 863.48,1230.69C873.302,1229.26 878.658,1223.86 881.744,1213.82C887.427,1195.28 880.214,1173.58 866.704,1168.58C860.607,1166.33 851.224,1166.98 846.369,1170Z" style="fill-rule:nonzero;"/>
        <path d="M222.76,287.364C222.843,278.927 216.177,278.764 216.218,284.923C215.677,315.877 189.51,331.118 170.468,327.502C141.177,321.931 131.802,292.827 132.093,275.689C132.968,222.785 186.218,183.777 234.26,115.96C269.468,177.173 327.593,225.252 331.01,272.568C335.593,335.477 255.968,358.943 244.593,285.623C243.885,280.443 237.802,278.118 238.26,285.352C239.968,305.443 237.51,313.814 260.177,363.348L200.927,363.348C214.052,340.202 221.885,311.789 222.76,287.364Z" style="fill-rule:nonzero;"/>
        <path d="M687.51,287.364C687.552,278.927 680.885,278.764 680.968,284.923C680.385,315.877 654.218,331.118 635.218,327.502C605.885,321.931 596.51,292.827 596.802,275.689C597.677,222.785 650.927,183.777 698.968,115.96C734.177,177.173 792.302,225.252 795.76,272.568C800.302,335.477 720.718,358.943 709.343,285.623C708.593,280.443 702.51,278.118 702.968,285.352C704.718,305.443 702.26,313.814 724.927,363.348L665.677,363.348C678.76,340.202 686.593,311.789 687.51,287.364Z" style="fill-rule:nonzero;"/>
        <path d="M687.51,559.577C687.552,551.135 680.885,550.973 680.968,557.135C680.385,588.089 654.218,603.331 635.218,599.714C605.885,594.139 596.51,565.039 596.802,547.898C597.677,494.998 650.927,455.989 698.968,388.173C734.177,449.385 792.302,497.46 795.76,544.781C800.302,607.689 720.718,631.152 709.343,557.831C708.593,552.652 702.51,550.327 702.968,557.56C704.718,577.656 702.26,586.027 724.927,635.56L665.677,635.56C678.76,612.414 686.593,583.998 687.51,559.577Z" style="fill-rule:nonzero;"/>
        <path d="M222.76,559.577C222.843,551.135 216.177,550.973 216.218,557.135C215.677,588.089 189.51,603.331 170.468,599.714C141.177,594.139 131.802,565.039 132.093,547.898C132.968,494.998 186.218,455.989 234.26,388.173C269.468,449.385 327.593,497.46 331.01,544.781C335.593,607.689 255.968,631.152 244.593,557.831C243.885,552.652 237.802,550.327 238.26,557.56C239.968,577.656 237.51,586.027 260.177,635.56L200.927,635.56C214.052,612.414 221.885,583.998 222.76,559.577Z" style="fill-rule:nonzero;"/>
        <path d="M687.552,1014.27C687.593,1022.71 680.927,1022.87 681.01,1016.71C680.427,985.76 654.26,970.518 635.26,974.131C605.927,979.706 596.552,1008.81 596.843,1025.95C597.718,1078.85 650.968,1117.86 699.01,1185.67C734.218,1124.46 792.343,1076.38 795.802,1029.07C800.343,966.16 720.76,942.693 709.385,1016.01C708.635,1021.19 702.552,1023.52 703.01,1016.28C704.76,996.189 702.302,987.823 724.968,938.289L665.718,938.289C678.843,961.435 686.635,989.848 687.552,1014.27Z" style="fill-rule:nonzero;"/>
        <path d="M687.552,742.998C687.593,751.439 680.927,751.598 681.01,745.439C680.427,714.485 654.26,699.243 635.26,702.86C605.927,708.435 596.552,737.535 596.843,754.677C597.718,807.577 650.968,846.585 699.01,914.402C734.218,853.189 792.343,805.11 795.802,757.793C800.343,694.885 720.76,671.423 709.385,744.743C708.635,749.923 702.552,752.248 703.01,745.014C704.76,724.918 702.302,716.548 724.968,667.014L665.718,667.014C678.843,690.16 686.635,718.577 687.552,742.998Z" style="fill-rule:nonzero;"/>
        <path d="M458.01,602.331C458.052,610.773 451.385,610.935 451.468,604.773C450.885,573.818 424.718,558.581 405.718,562.193C376.385,567.768 367.052,596.868 367.302,614.01C368.177,666.91 421.427,705.918 469.468,773.735C504.677,712.527 562.802,664.448 566.26,617.131C570.843,554.223 491.218,530.756 479.843,604.077C479.093,609.256 473.01,611.581 473.468,604.348C475.218,584.252 472.76,575.885 495.427,526.352L436.177,526.352C449.302,549.493 457.093,577.91 458.01,602.331Z" style="fill-rule:nonzero;"/>
        <path d="M222.802,742.998C222.885,751.439 216.218,751.598 216.26,745.439C215.718,714.485 189.552,699.243 170.51,702.86C141.218,708.435 131.843,737.535 132.135,754.677C133.01,807.577 186.26,846.585 234.302,914.402C269.51,853.189 327.635,805.11 331.052,757.793C335.635,694.885 256.01,671.423 244.677,744.743C243.927,749.923 237.843,752.248 238.302,745.014C240.01,724.918 237.593,716.548 260.218,667.014L200.968,667.014C214.093,690.16 221.927,718.577 222.802,742.998Z" style="fill-rule:nonzero;"/>
        <path d="M222.802,1014.27C222.885,1022.71 216.218,1022.87 216.26,1016.71C215.718,985.76 189.552,970.518 170.51,974.131C141.218,979.706 131.843,1008.81 132.135,1025.95C133.01,1078.85 186.26,1117.86 234.302,1185.67C269.51,1124.46 327.635,1076.38 331.052,1029.07C335.635,966.16 256.01,942.693 244.677,1016.01C243.927,1021.19 237.843,1023.52 238.302,1016.28C240.01,996.189 237.593,987.823 260.218,938.289L200.968,938.289C214.093,961.435 221.927,989.848 222.802,1014.27Z" style="fill-rule:nonzero;"/>
        <path d="M73.052,281.152C73.093,277.518 69.302,279.214 68.802,280.356C63.968,288.631 56.885,290.556 49.843,287.573C42.927,284.618 39.01,278.073 39.635,268.731C40.927,254.406 52.302,238.731 57.802,229.873C63.01,221.831 68.718,212.281 74.76,200.064C81.843,214.077 85.427,218.064 93.135,230.86C99.885,242.127 109.343,253.164 110.052,266.785C110.052,277.139 105.718,286.918 95.927,288.702C90.343,289.71 85.177,286.86 81.302,280.214C80.135,278.518 77.76,279.402 77.802,281.723C78.51,290.443 81.802,298.318 89.593,307.606L60.927,307.606C66.802,301.039 72.76,292.173 73.052,281.152Z" style="fill-rule:nonzero;"/>
        <path d="M859.802,1000.92C859.843,1004.56 856.052,1002.86 855.552,1001.71C850.677,993.443 843.593,991.518 836.593,994.502C829.635,997.456 825.76,1004 826.385,1013.34C827.677,1027.67 839.01,1043.34 844.51,1052.2C849.718,1060.24 855.468,1069.79 861.51,1082.01C868.552,1068 872.177,1064.01 879.843,1051.21C886.635,1039.94 896.093,1028.91 896.802,1015.28C896.802,1004.93 892.427,995.152 882.635,993.373C877.093,992.364 871.885,995.21 868.052,1001.86C866.885,1003.55 864.51,1002.67 864.552,1000.35C865.218,991.627 868.51,983.756 876.343,974.468L847.635,974.468C853.51,981.035 859.51,989.902 859.802,1000.92Z" style="fill-rule:nonzero;"/>
    </g>
</svg>
